SVG/126-stage-question.svg

<?xml version="1.0" encoding="UTF-8" standalone="no"?>
<svg width="14px" height="15px" viewBox="0 0 14 15" version="1.1" xmlns="http://www.w3.org/2000/svg" xmlns:xlink="http://www.w3.org/1999/xlink">
    <!-- Generator: Sketch 3.8.2 (29753) - http://www.bohemiancoding.com/sketch -->
    <title>126-stage-question</title>
    <desc>Created with Sketch.</desc>
    <defs></defs>
    <g id="Page-1" stroke="none" stroke-width="1" fill="none" fill-rule="evenodd">
        <g id="126-stage-question" fill="#000000">
            <g id="Layer_2">
                <g id="Icons">
                    <path d="M13,0 L1,0 C0.44771525,-3.38176876e-17 6.76353751e-17,0.44771525 0,1 L0,11 C6.76353751e-17,11.5522847 0.44771525,12 1,12 L3,12 C2.89742408,12.4392925 2.75344707,12.8678752 2.57,13.28 C2.42915771,13.4847881 2.42915771,13.7552119 2.57,13.96 C2.57,13.96 2.68,14.1 2.76,14.11 C2.85985898,14.1175106 2.96014102,14.1175106 3.06,14.11 C4.49499865,13.6622729 5.831988,12.9462709 7,12 L13,12 C13.5522847,12 14,11.5522847 14,11 L14,1 C14,0.44771525 13.5522847,3.38176876e-17 13,0 L13,0 Z M13,11 L6.64,11 L6.38,11.2 C6.08,11.43 5.69,11.71 5.26,12 C4.80795345,12.2971373 4.33694713,12.564375 3.85,12.8 C3.93742057,12.538213 4.00757123,12.2709724 4.06,12 C4.13213443,11.671047 4.17563043,11.3364624 4.19,11 L1,11 L1,1 L13,1 L13,11 Z" id="Shape"></path>
                    <path d="M6.28,3.48 C6.48141198,3.27366518 6.76208556,3.16431184 7.05,3.18 C7.18741378,3.17889977 7.32357968,3.20613295 7.45,3.26 C7.57275132,3.30759439 7.68489629,3.37895937 7.78,3.47 C7.87241296,3.56220919 7.94699765,3.67069601 8,3.79 C8.05523263,3.91951085 8.08249401,4.05922541 8.08,4.2 C8.08110023,4.33741378 8.05386705,4.47357968 8,4.6 C7.94305949,4.72089746 7.87261059,4.83495758 7.79,4.94 C7.70358405,5.04937721 7.61004768,5.15293533 7.51,5.25 L7.2,5.54 L6.88,5.85 C6.797363,5.92941753 6.72663249,6.02035674 6.67,6.12 C6.61532479,6.21703644 6.57490993,6.32144152 6.55,6.43 C6.53381757,6.5762203 6.53381757,6.7237797 6.55,6.87 L6.55,7.46 L7.48,7.46 L7.48,7 C7.47234578,6.8867959 7.47234578,6.7732041 7.48,6.66 C7.49039437,6.57357392 7.51400301,6.48925735 7.55,6.41 C7.58645393,6.33370489 7.63359449,6.26299406 7.69,6.2 L7.92,6 L8,5.91 L8.58,5.31 C8.70559305,5.15274771 8.80673217,4.97743991 8.88,4.79 C8.95857508,4.58573586 8.99924033,4.36885453 9,4.15 C9.0041945,3.88891974 8.95307393,3.62990885 8.85,3.39 C8.7553939,3.17590592 8.61551758,2.98485532 8.44,2.83 C8.25824001,2.67386846 8.04758735,2.55495163 7.82,2.48 C7.57511163,2.39797769 7.31824662,2.35742006 7.06,2.36 C6.5411392,2.342956 6.03349621,2.51335365 5.63,2.84 C5.23490346,3.17304814 4.98404679,3.64609215 4.93,4.16 L5.93,4.26 C5.95539253,3.9679764 6.07873217,3.69310519 6.28,3.48 L6.28,3.48 Z" id="Shape"></path>
                    <path d="M7,8.17 C6.69454302,8.16756461 6.42994267,8.38133532 6.36813532,8.6804837 C6.30632798,8.97963208 6.46454432,9.28076138 6.74595537,9.39957938 C7.02736643,9.51839738 7.35352028,9.42177994 7.52480959,9.16885728 C7.69609891,8.91593462 7.66477156,8.57721666 7.45,8.36 C7.33301225,8.23675225 7.16991671,8.16788969 7,8.17 L7,8.17 Z" id="Shape"></path>
                </g>
            </g>
        </g>
    </g>
</svg>

<svg xmlns="http://www.w3.org/2000/svg" viewBox="0 0 14 14.13"><title>Asset 14</title><g id="Layer_2" data-name="Layer 2"><g id="Icons"><path d="M13,0H1A1,1,0,0,0,0,1V11a1,1,0,0,0,1,1H3a7.14,7.14,0,0,1-.43,1.28.6.6,0,0,0,0,.68s.11.14.19.15a2,2,0,0,0,.3,0A11.88,11.88,0,0,0,7,12h6a1,1,0,0,0,1-1V1A1,1,0,0,0,13,0Zm0,11H6.64l-.26.2c-.3.23-.69.51-1.12.8a12.4,12.4,0,0,1-1.41.8,6.31,6.31,0,0,0,.21-.8,5.83,5.83,0,0,0,.13-1H1V1H13Z"/><path d="M6.28,3.48a1,1,0,0,1,.77-.3,1,1,0,0,1,.4.08,1,1,0,0,1,.33.21A1.06,1.06,0,0,1,8,3.79a1,1,0,0,1,.08.41A1,1,0,0,1,8,4.6a1.77,1.77,0,0,1-.21.34,3.17,3.17,0,0,1-.28.31l-.31.29-.32.31a1.19,1.19,0,0,0-.21.27,1.16,1.16,0,0,0-.12.31,2,2,0,0,0,0,.44v.59h.93V7a2.52,2.52,0,0,1,0-.34.85.85,0,0,1,.07-.25.89.89,0,0,1,.14-.21L7.92,6,8,5.91l.58-.6a2,2,0,0,0,.3-.52A1.8,1.8,0,0,0,9,4.15a1.85,1.85,0,0,0-.15-.76,1.62,1.62,0,0,0-.41-.56,1.83,1.83,0,0,0-.62-.35,2.32,2.32,0,0,0-.76-.12,2.16,2.16,0,0,0-1.43.48,2,2,0,0,0-.7,1.32l1,.1A1.3,1.3,0,0,1,6.28,3.48Z"/><path d="M7,8.17a.64.64,0,1,0,.45.19A.61.61,0,0,0,7,8.17Z"/></g></g></svg>
